X: 5
T: John Howett
I: John HowettR-83Dreel
%%staffsep46pt
M: C|
R: reel
K: D
%%textfont       Times-Roman 9.0
%%text Repeat part A 4 times
%%textfont       Times-Roman 7.0
fg| "D"a2fd "A"g2ec| "D"d2AG FDDF| "Em"E2FG ABcd|1 "A"eAfA g2fg:|2 "A"eABc "D"d2 :|
|:"D"defg aAfA| "G"gfed "A"ceAe| "D"defg aAfA| "G"gba^g "A"a4|
"D"abaf "G"gfed| "Em"efgA "A"GFED| "D"F2AF "G"G2BG| "A"Addc "D"d4 :|
%%text Roaring Jelly  R-83
%%text 08/29/98
